!!!OTL: Shanhua tuyanfenwaixiang
!!!ARE: Asia, China,ÿHubei Yicheng
!! I, 369
!!!SCT: C2134
!!!YEM: Copyright 1995, estate of Helmut Schaffrath.
**kern
*ICvox
*Ivox
*M2/4
*k[b-]
*F:
{2cc}
=1
{8g
8g
8g
16a
16g
=2
4.f
8d
=3
8a
8cc
8dd
16ee
16dd
=4
2cc}
=5
{8f
4f
8g
=6
8dd
16ee
16dd
8cc
8a
=7
8g
16g
16a
8g
8f
=8
8f
16f
16d
4c}
=9
{8a
8cc
8dd
8dd
=10
2cc
=11
8a
16a
16cc
8a
16f
16d
=12
2f}
=13
{8f
4f
8g
=14
8dd
16ee
16dd
4cc
=15
8g
16a
16cc
8g
8f
=16
8g
8d
4f}
=17
{8f
4f
8g
=18
8a
4dd
8cc
=19
8a
8a
8dd
8dd
=20
2cc}
=21
{8f
4f
8g
=22
8dd
16ee
16dd
4cc
=23
8g
16g
16a
8g
8f
=24
8g
8d
4c}
=25
{8.dd
16a
4cc
=26
8dd
4dd
8cc
=27
8a
8cc
8g
16a
16g
=28
2f}
=29
{8f
4f
8g
=30
8dd
16ee
16dd
4cc
=31
8g
16a
16cc
8g
8f
=32
8g
8d
4f}
==
!!!AGN: Haozi, Tiange, Hayangchaoge, Tiandong diao
!!!ONB: ESAC (Essen Associative Code) Database: SENGANSU
!!!AMT: simple duple
!!!AIN: vox
!!!EED: Helmut Schaffrath
!!!EEV: 1.0
*-
